images/img_MBR_01_deco2.svg

<svg width="17" height="144" viewBox="0 0 17 144" fill="none" xmlns="http://www.w3.org/2000/svg">
<path d="M0.882812 5.98L14.8828 0V4.28L2.76281 9.32V6.8L14.8828 11.96V15.88L0.882812 9.88V5.98Z" fill="white"/>
<path d="M0.882812 18.6995H14.8828V22.6595H0.882812V18.6995Z" fill="white"/>
<path d="M0.882812 27.4769H14.8828V34.0969C14.8828 35.6435 14.5961 37.0035 14.0228 38.1769C13.4495 39.3502 12.6428 40.2635 11.6028 40.9169C10.5628 41.5835 9.32281 41.9169 7.88281 41.9169C6.45615 41.9169 5.21615 41.5835 4.16281 40.9169C3.12281 40.2635 2.31615 39.3502 1.74281 38.1769C1.16948 37.0035 0.882813 35.6435 0.882812 34.0969V27.4769ZM4.04281 31.4369V33.9369C4.04281 34.7369 4.18948 35.4302 4.48281 36.0169C4.78948 36.6169 5.22948 37.0835 5.80281 37.4169C6.38948 37.7502 7.08281 37.9169 7.88281 37.9169C8.69615 37.9169 9.38948 37.7502 9.96281 37.4169C10.5361 37.0835 10.9695 36.6169 11.2628 36.0169C11.5695 35.4302 11.7228 34.7369 11.7228 33.9369V31.4369H4.04281Z" fill="white"/>
<path d="M9.46281 49.6403V56.1403H6.50281V49.6403H9.46281ZM3.94281 49.9203V57.2403H0.882812V46.0003H14.8828V56.9803H11.8228V49.9203H3.94281Z" fill="white"/>
<path d="M0.602812 68.4978C0.602812 67.3778 0.782812 66.3445 1.14281 65.3978C1.50281 64.4511 2.00948 63.6245 2.66281 62.9178C3.32948 62.2245 4.10281 61.6845 4.98281 61.2978C5.86281 60.9111 6.82948 60.7178 7.88281 60.7178C8.93615 60.7178 9.90281 60.9111 10.7828 61.2978C11.6628 61.6845 12.4295 62.2245 13.0828 62.9178C13.7495 63.6245 14.2628 64.4511 14.6228 65.3978C14.9828 66.3445 15.1628 67.3778 15.1628 68.4978C15.1628 69.6311 14.9828 70.6645 14.6228 71.5978C14.2628 72.5445 13.7495 73.3645 13.0828 74.0578C12.4295 74.7511 11.6628 75.2911 10.7828 75.6778C9.90281 76.0778 8.93615 76.2778 7.88281 76.2778C6.82948 76.2778 5.85615 76.0778 4.96281 75.6778C4.08281 75.2911 3.31615 74.7511 2.66281 74.0578C2.00948 73.3645 1.50281 72.5445 1.14281 71.5978C0.782812 70.6645 0.602812 69.6311 0.602812 68.4978ZM3.88281 68.4978C3.88281 69.0311 3.97615 69.5245 4.16281 69.9778C4.34948 70.4445 4.61615 70.8445 4.96281 71.1778C5.32281 71.5245 5.74948 71.7911 6.24281 71.9778C6.73615 72.1778 7.28281 72.2778 7.88281 72.2778C8.49615 72.2778 9.04281 72.1778 9.52281 71.9778C10.0161 71.7911 10.4361 71.5245 10.7828 71.1778C11.1428 70.8445 11.4161 70.4445 11.6028 69.9778C11.7895 69.5245 11.8828 69.0311 11.8828 68.4978C11.8828 67.9645 11.7895 67.4645 11.6028 66.9978C11.4161 66.5445 11.1428 66.1445 10.7828 65.7978C10.4361 65.4645 10.0161 65.1978 9.52281 64.9978C9.04281 64.8111 8.49615 64.7178 7.88281 64.7178C7.28281 64.7178 6.73615 64.8111 6.24281 64.9978C5.74948 65.1978 5.32281 65.4645 4.96281 65.7978C4.61615 66.1445 4.34948 66.5445 4.16281 66.9978C3.97615 67.4645 3.88281 67.9645 3.88281 68.4978Z" fill="white"/>
<path d="M8.15481 89.0849C7.33933 93.6289 4.00247 97.0356 0 97.0356C4.00247 97.0356 7.33933 100.442 8.15481 104.986C8.95266 100.526 12.1837 97.179 16.0804 97.0505C16.0804 97.0406 16.0804 97.0307 16.0804 97.0208C12.1793 96.8922 8.94825 93.5399 8.1504 89.0849H8.15481Z" fill="white"/>
<path d="M8.15481 108.538C7.33933 113.082 4.00247 116.489 0 116.489C4.00247 116.489 7.33933 119.896 8.15481 124.44C8.95266 119.98 12.1837 116.632 16.0804 116.504C16.0804 116.494 16.0804 116.484 16.0804 116.474C12.1793 116.345 8.94825 112.993 8.1504 108.538H8.15481Z" fill="#FF7D04"/>
<path d="M8.15481 127.989C7.33933 132.533 4.00247 135.94 0 135.94C4.00247 135.94 7.33933 139.347 8.15481 143.891C8.95266 139.431 12.1837 136.084 16.0804 135.955C16.0804 135.945 16.0804 135.935 16.0804 135.925C12.1793 135.797 8.94825 132.444 8.1504 127.989H8.15481Z" fill="#23A099"/>
</svg>

<?xml version="1.0" encoding="UTF-8"?>
<svg id="_圖層_1" data-name="圖層_1" xmlns="http://www.w3.org/2000/svg" version="1.1" viewBox="0 0 16.08 143.89">
  <!-- Generator: Adobe Illustrator 30.6.0, SVG Export Plug-In . SVG Version: 2.1.4 Build 109)  -->
  <defs>
    <style>
      .st0 {
        fill: #ff7d04;
      }

      .st1 {
        fill: #fff;
      }

      .st2 {
        fill: #23a099;
      }
    </style>
  </defs>
  <path class="st1" d="M.88,5.98L14.88,0v4.28L2.76,9.32v-2.52l12.12,5.16v3.92L.88,9.88v-3.9Z"/>
  <path class="st1" d="M.88,18.7h14v3.96H.88v-3.96Z"/>
  <path class="st1" d="M.88,27.48h14v6.62c0,1.55-.29,2.91-.86,4.08-.57,1.17-1.38,2.09-2.42,2.74-1.04.67-2.28,1-3.72,1s-2.67-.33-3.72-1c-1.04-.65-1.85-1.57-2.42-2.74-.57-1.17-.86-2.53-.86-4.08v-6.62ZM4.04,31.44v2.5c0,.8.15,1.49.44,2.08.31.6.75,1.07,1.32,1.4.59.33,1.28.5,2.08.5s1.51-.17,2.08-.5c.57-.33,1.01-.8,1.3-1.4.31-.59.46-1.28.46-2.08v-2.5h-7.68Z"/>
  <path class="st1" d="M9.46,49.64v6.5h-2.96v-6.5h2.96ZM3.94,49.92v7.32H.88v-11.24h14v10.98h-3.06v-7.06H3.94Z"/>
  <path class="st1" d="M.6,68.5c0-1.12.18-2.15.54-3.1.36-.95.87-1.77,1.52-2.48.67-.69,1.44-1.23,2.32-1.62.88-.39,1.85-.58,2.9-.58s2.02.19,2.9.58c.88.39,1.65.93,2.3,1.62.67.71,1.18,1.53,1.54,2.48.36.95.54,1.98.54,3.1s-.18,2.17-.54,3.1c-.36.95-.87,1.77-1.54,2.46-.65.69-1.42,1.23-2.3,1.62-.88.4-1.85.6-2.9.6s-2.03-.2-2.92-.6c-.88-.39-1.65-.93-2.3-1.62-.65-.69-1.16-1.51-1.52-2.46-.36-.93-.54-1.97-.54-3.1ZM3.88,68.5c0,.53.09,1.03.28,1.48.19.47.45.87.8,1.2.36.35.79.61,1.28.8.49.2,1.04.3,1.64.3s1.16-.1,1.64-.3c.49-.19.91-.45,1.26-.8.36-.33.63-.73.82-1.2.19-.45.28-.95.28-1.48s-.09-1.03-.28-1.5c-.19-.45-.46-.85-.82-1.2-.35-.33-.77-.6-1.26-.8-.48-.19-1.03-.28-1.64-.28s-1.15.09-1.64.28c-.49.2-.92.47-1.28.8-.35.35-.61.75-.8,1.2-.19.47-.28.97-.28,1.5Z"/>
  <path class="st1" d="M8.15,89.08c-.82,4.54-4.15,7.95-8.15,7.95,4,0,7.34,3.41,8.15,7.95.8-4.46,4.03-7.81,7.93-7.94v-.03c-3.9-.13-7.13-3.48-7.93-7.94h0Z"/>
  <path class="st0" d="M8.15,108.54c-.82,4.54-4.15,7.95-8.15,7.95,4,0,7.34,3.41,8.15,7.95.8-4.46,4.03-7.81,7.93-7.94v-.03c-3.9-.13-7.13-3.48-7.93-7.94h0Z"/>
  <path class="st2" d="M8.15,127.99c-.82,4.54-4.15,7.95-8.15,7.95,4,0,7.34,3.41,8.15,7.95.8-4.46,4.03-7.81,7.93-7.94v-.03c-3.9-.13-7.13-3.48-7.93-7.94h0Z"/>
</svg>
